X:1
T:Wake the Song
T:William Fiske Sherwin, 1871
T:Wake the Song
T:Public Domain
T:Public Domain
T:Public Domain
C:William Fiske Sherwin, 1871
Z:Public Domain
%%score ( 1 2 ) ( 3 4 )
L:1/8
M:4/4
K:F
V:1 treble 
V:2 treble 
V:3 bass 
V:4 bass 
V:1
 [CA]>[B,G] | [A,F]2 C2 [B,D]2 [DB]2 | ([CA]3 [B,G]) [A,F]2 [B,E]>[A,F] | %3
w: 1.~Wake the|song of joy and|ness; * Hi- ther bring|
w: 2.~Joy- ful-|ly with songs and|ners, * We will greet|
w: 3.~Thanks to|Thee, O ho- ly|ther, * For the mer-|
 [CG]2 [CG]2 [=B,A]2 [B,G]2 | [CG]6 [CA]>[B,G] | [A,F]2 [A,C]2 [B,D]2 [DB]2 | %6
w: your no- blest lays;|Ban- ish ev-|ery thought of sad-|
w: the fest- al day;|Shout a- loud|our glad ho- san-|
w: cies of the year;|May each heart,|as here we ga-|
 ([CA]3 [B,G]) [A,F]2 [CF]>[CA] | [Cc]2 [DB]2 [CA]2 [CG]2 | [CF]6 C>[CD] | %9
w: ness, * Pour- ing forth|your high- est praise.|Sing to Him|
w: nas, * And our grate-|ful homa- ge pay.|We will chant|
w: ther, * Swell with gra-|ti- tude sin- cere.|Thanks to Thee,|
 [CE]2 [DF]2 [EG]2 [FA]2 | [GB]2 [GB]4 [FA]>[EG] | F2 [EG]2 [FA]2 [F=B]2 | [Ec]6 [Gc]>[GB] | %13
w: whose care has brought|us Once a- gain|with friends to meet,|whose lov- ing|
w: our Sav- ior’s glo-|ry While our thoughts|we raise a- bove,|ing still “the|
w: O lov- ing Sav-|ior, For re- demp-|tion through Thy blood.|up- on us,|
 [FA]2 [EG]2 [DF]2 [^CE]2 | D2 [DF]4 [CE]>[B,D] | [A,C]2 [CF]2 [CA]2 [B,G]2 | [A,F]6 || %17
w: voice has taught us,|Of the way to|sus’ feet. Wake the|song,|
w: old old sto- ry,”|Pre- cious theme— re-|ing love! * *||
w: Ho- ly Spir- it,|Sweet- ly draw us|to God. * *||
"^Refrain" E>F | (z2 E>E E2) [DF]>[EG] | [FA]6 [FA]2 | [FB]3 [FB] [FB]2 [Fd]2 | %21
w: wake the|* * * song, The|* of|joy and glad- ness,|
w: ||||
w: ||||
 [Fc]4 [CA]2 [A,F]>[B,G] | [CA]6 [B,G]>[CA] | [DB]6 [CG]2 | [Cc]3 [DB] [CA]2 [CG]2 | [CF]6 |] %26
w: Wake the song, wake|the song, The|song of|Ju- bi- lee. *||
w: |||||
w: |||||
V:2
 x2 | x2 C2 x4 | x8 | x8 | x8 | x8 | x8 | x8 | x8 | x8 | x8 | F2 x6 | x8 | x8 | D2 x6 | x8 | x6 || %17
w: |glad-||||||||||And|||Je-|||
w: |ban-||||||||||Tell-|||deem-|||
w: |Fa-||||||||||Breathe|||near|||
 x2 | G6 x2 | x8 | x8 | x8 | x8 | x8 | x8 | x6 |] %26
w: |song||||||||
w: |||||||||
w: |||||||||
V:3
 F,>F, | F,2 [A,,F,]2 [B,,F,]2 [B,,F,]2 | [F,,F,]4 [F,,F,]2 [C,G,]>[C,F,] | %3
w: ~ ~|~ ~ ~ ~|~ ~ ~ ~|
 [C,E,]2 [C,E,]2 [G,,F,]2 [G,,F,]2 | [C,E,]6 [C,E,]>[C,E,] | [F,,F,]2 [F,,F,]2 [B,,F,]2 [B,,F,]2 | %6
w: ~ ~ ~ ~|~ ~ ~|~ ~ ~ ~|
 [F,,F,]4 [F,,F,]2 [F,,A,]>[F,,A,] | [A,,F,]2 [B,,F,]2 [C,F,]2 [C,B,]2 | [F,,A,]6 [C,E,]>[C,F,] | %9
w: ~ ~ ~ ~|~ ~ ~ ~|~ ~ ~|
 [C,G,]2 [C,G,]2 [C,C]2 [C,C]2 | [C,C]2 [C,C]4 [C,C]>[C,B,] | [D,A,]2 [C,C]2 [F,C]2 [D,G,]2 | %12
w: ~ ~ ~ ~|~ ~ ~ ~|~ ~ ~ ~|
 [C,G,]6 [E,C]>[E,C] | [F,C]2 [C,B,]2 [D,A,]2 A,G, | [B,,F,]2 [B,,F,]4 [B,,F,]>[B,,F,] | %15
w: ~ ~ ~|~ ~ ~ ~ ~|~ ~ ~ ~|
 [C,F,]2 [C,A,]2 [C,F,]2 [C,E,]2 | [F,,F,]6 || z2 | z2 [C,C]>[C,C] [C,C]2 z2 | %19
w: ~ Wake the song,|wake||the song, ~|
 z2 [F,C]>[F,C] [F,C]2 [F,C]2 | [B,,D]3 [B,,D] [B,,D]2 [B,,B,]2 | [F,A,]4 [F,C]2 z2 | %22
w: ~ ~ ~ ~|~ ~ Wake the|song, wake|
 z2 F,>F, F,2 z2 | z2 [B,,F,]>[B,,F,] [B,,F,]2 [C,E,]2 | [A,,F,]3 [B,,F,] [C,F,]2 [C,B,]2 | %25
w: the song, *|||
 [F,,A,]6 |] %26
w: |
V:4
 F,>F, | F,2 x6 | x8 | x8 | x8 | x8 | x8 | x8 | x8 | x8 | x8 | x8 | x8 | x6 A,,2 | x8 | x8 | x6 || %17
w: ~ ~|~||||||||||||~||||
 x2 | x8 | x8 | x8 | x8 | x2 F,>F, x4 | x8 | x8 | x6 |] %26
w: |||||||||

